X: 63
T: LA OIE
M: 4/4
L: 1/8
Q:1/4=120
K:G 
|GFE3/2 z/2 A3/2 z/2 GA|BAGF E3/2 z/2 A3/2 z/2 |GAB3/2 z/2 B3/2 z/2 GF|E
3/2 z/2 A3/2 z/2 GABA|
 GFE3/2 z/2 A3/2 z/2 GA|B3/2 z/2 B3/2 z/2 BGAA|BGAA BGAA|BGAA B3/2 z/2 G
3/2 z/2 |
EAAA G3/2 z/2 GF|E3/2 z/2 DA AAG3/2 z/2 |G3/2 z/2 EA AAG3/2 z/2 |GFE3/2 
z/2 DAAA|
G3/2|
